images/reference/baidu.svg

<svg enable-background="new 0 0 231 79" height="79" viewBox="0 0 231 79" width="231" xmlns="http://www.w3.org/2000/svg"><path d="m.78.761h229.339v77.776h-229.339z" fill="none"/><g transform="translate(1.55968 -5.45889)"><path d="m89.241 47.789c7.75-1.665 6.692-10.937 6.465-12.963-.382-3.125-4.055-8.582-9.039-8.146-6.275.559-7.191 9.623-7.191 9.623-.85 4.197 2.028 13.155 9.765 11.486m14.392-15.543c4.278 0 7.736-4.93 7.736-11.02 0-6.091-3.458-11.013-7.736-11.013-4.28 0-7.747 4.922-7.747 11.013 0 6.09 3.466 11.02 7.747 11.02m18.444.725c5.727.75 9.396-5.359 10.13-9.988.75-4.623-2.95-10-6.995-10.923-4.063-.934-9.135 5.57-9.592 9.813-.557 5.19.736 10.365 6.457 11.098m22.679 7.777c0-2.214-1.833-8.888-8.659-8.888-6.84 0-7.744 6.298-7.744 10.748 0 4.247.354 10.171 8.848 9.987 8.485-.188 7.555-9.618 7.555-11.847m-8.659 19.436s-8.853-6.848-14.02-14.252c-7.016-10.917-16.97-6.471-20.298-.927-3.318 5.558-8.476 9.068-9.214 10-.745.913-10.692 6.288-8.485 16.103 2.212 9.807 9.969 9.621 9.969 9.621s5.717.559 12.347-.924c6.644-1.479 12.36.363 12.36.363s15.498 5.197 19.733-4.803c4.24-9.992-2.392-15.181-2.392-15.181" fill="#2319dc"/><path d="m105.008 50.637v6.588h-5.368s-5.365.445-7.243 6.526c-.655 4.06.578 6.451.793 6.962.217.51 1.951 3.48 6.305 4.352h10.073v-24.356zm-.081 20.43h-4.058s-2.827-.147-3.688-3.402c-.444-1.442.066-3.108.29-3.763.205-.656 1.154-2.172 3.111-2.756h4.344z" fill="#fff"/><path d="m112.037 57.816v12.824s.21 3.191 4.71 4.354h11.592v-17.18h-5.003v12.897h-4.774s-1.526-.222-1.813-1.448v-11.523z" fill="#fff"/><g fill="#e10601"><path d="m183.57 49.396v-5.406h-35.612l-.046 5.486h15.31l-1.436 3.281h-13.02v27.129h30.929c3.233 0 2.946-3.266 2.946-3.266v-23.862h-13.039l1.146-3.359h12.821v-.003zm-6.916 24.698s-.375.901-.905.901h-20.523v-6.328h21.431zm-.035-10.653h-21.396v-5.934h21.396z"/><path d="m224.263 44.135h-13.973v-2.737h-6.553v2.602h-16.028v35.831h5.767v-31.209h30.787zm-3.769 7.416v-2.074h-5.633v2.074h-11.589v-2h-5.336v2h-3.605l.071 4.059h3.534v7.623h19.492c2.705 0 3.063-2.854 3.063-2.854v-4.771h4.125v-4.06h-4.124zm-5.633 6.83s-.503.924-1.146.924h-10.505v-3.775h11.648v2.853h.003zm-19.743 10.407 8.973 5.204c-.711.781-3.775 1.773-3.775 1.773h-5.982v4h8.122c2.424-.496 6.91-2.776 6.91-2.776 1.856 1.705 5.425 2.415 5.425 2.415h9.258v-3.99h-6.979c-1.881-.281-3.57-1.354-3.57-1.354l10.551-6.058v-3.28h-28.93v4.064zm18.67-.067-5.132 2.707-4.704-2.707z"/><path d="m68.72 49.84h7.773v-6.848h-7.773zm0 29.845h7.773v-26.862h-7.773z"/><path d="m56.081 52.846-16.584-.043v5.647h14.542s3.461.854 3.461 3.05v1.989h-13.159s-5.175.478-6.837 6.659c-.286 2.896.095 4.318.29 4.846.187.523 1.703 3.938 6.216 4.791h20.953v-19.243c0 .001-.998-6.603-8.882-7.696m1.419 21.623h-10.59c-1.423-.574-1.897-1.521-1.997-1.761-.098-.233-.428-1.084-.044-1.944.857-1.658 2.277-2.041 2.277-2.041h10.354z"/><path d="m35.795 70.264c.229-6.541-5.639-8.803-5.639-8.803 4.967-2.598 4.336-9.146 4.336-9.146-.538-10.021-12.782-9.553-12.782-9.553h-18.919v37.347h21.362c12.545-.05 11.642-9.845 11.642-9.845m-12.071 2.903v.017h-12.797v-8.058h12.734l.431.087s2.423.443 3.301 2.622c0 0 .508 2.048-.589 3.569 0 0-.807 1.406-3.08 1.763m2.713-17.316s-.86 1.58-3.142 1.922h-12.368v-7.729h12.315s2.676-.123 3.562 2.002c0 .001.532 2.259-.367 3.805"/></g></g></svg>

<?xml version="1.0" encoding="utf-8"?>
<!-- Generator: Adobe Illustrator 15.0.2, SVG Export Plug-In . SVG Version: 6.00 Build 0)  -->
<!DOCTYPE svg PUBLIC "-//W3C//DTD SVG 1.1//EN" "http://www.w3.org/Graphics/SVG/1.1/DTD/svg11.dtd">
<svg version="1.1"
	 id="Layer_1" sodipodi:docbase="/home/mantisears" sodipodi:docname="Baidu.svg" inkscape:version="0.45.1" sodipodi:version="0.32" inkscape:output_extension="org.inkscape.output.svg.inkscape" xmlns:dc="http://purl.org/dc/elements/1.1/" xmlns:cc="http://web.resource.org/cc/" xmlns:rdf="http://www.w3.org/1999/02/22-rdf-syntax-ns#" xmlns:svg="http://www.w3.org/2000/svg" xmlns:sodipodi="http://sodipodi.sourceforge.net/DTD/sodipodi-0.dtd" xmlns:inkscape="http://www.inkscape.org/namespaces/inkscape"
	 xmlns="http://www.w3.org/2000/svg" xmlns:xlink="http://www.w3.org/1999/xlink" x="0px" y="0px" width="231px" height="79px"
	 viewBox="0 0 231 79" enable-background="new 0 0 231 79" xml:space="preserve">
<sodipodi:namedview  id="base" inkscape:current-layer="Layer_1" inkscape:window-y="138" inkscape:window-x="138" inkscape:window-width="765" inkscape:window-height="575" inkscape:pageshadow="2" inkscape:pageopacity="0.0" inkscape:cy="87.802316" inkscape:cx="147" inkscape:zoom="1.2823129" pagecolor="#ffffff" bordercolor="#666666" borderopacity="1.0" objecttolerance="10.0" gridtolerance="10.0" guidetolerance="10.0">
	</sodipodi:namedview>
<rect id="rect2223" x="0.78" y="0.761" fill="#FFFFFF" fill-opacity="0" width="229.339" height="77.776"/>
<g id="g2225" transform="translate(1.55968, -5.45889)">
	<path id="path2227" fill="#2319DC" d="M89.241,47.789c7.75-1.665,6.692-10.937,6.465-12.963c-0.382-3.125-4.055-8.582-9.039-8.146
		c-6.275,0.559-7.191,9.623-7.191,9.623C78.626,40.5,81.504,49.458,89.241,47.789 M103.633,32.246c4.278,0,7.736-4.93,7.736-11.02
		c0-6.091-3.458-11.013-7.736-11.013c-4.28,0-7.747,4.922-7.747,11.013C95.886,27.316,99.352,32.246,103.633,32.246 M122.077,32.971
		c5.727,0.75,9.396-5.359,10.13-9.988c0.75-4.623-2.95-10-6.995-10.923c-4.063-0.934-9.135,5.57-9.592,9.813
		C115.063,27.063,116.356,32.238,122.077,32.971 M144.756,40.748c0-2.214-1.833-8.888-8.659-8.888c-6.84,0-7.744,6.298-7.744,10.748
		c0,4.247,0.354,10.171,8.848,9.987C145.686,52.407,144.756,42.977,144.756,40.748 M136.097,60.184c0,0-8.853-6.848-14.02-14.252
		c-7.016-10.917-16.97-6.471-20.298-0.927c-3.318,5.558-8.476,9.068-9.214,10c-0.745,0.913-10.692,6.288-8.485,16.103
		c2.212,9.807,9.969,9.621,9.969,9.621s5.717,0.559,12.347-0.924c6.644-1.479,12.36,0.363,12.36,0.363s15.498,5.197,19.733-4.803
		C142.729,65.373,136.097,60.184,136.097,60.184"/>
	<path id="path2229" fill="#FFFFFF" d="M105.008,50.637v6.588H99.64c0,0-5.365,0.445-7.243,6.526
		c-0.655,4.06,0.578,6.451,0.793,6.962c0.217,0.51,1.951,3.48,6.305,4.352h10.073V50.709L105.008,50.637z M104.927,71.067h-4.058
		c0,0-2.827-0.147-3.688-3.402c-0.444-1.442,0.066-3.108,0.29-3.763c0.205-0.656,1.154-2.172,3.111-2.756h4.344L104.927,71.067
		L104.927,71.067z"/>
	<path id="path2231" fill="#FFFFFF" d="M112.037,57.816v12.824c0,0,0.21,3.191,4.71,4.354h11.592v-17.18h-5.003v12.897h-4.774
		c0,0-1.526-0.222-1.813-1.448V57.74L112.037,57.816z"/>
	<path id="path2233" fill="#E10601" d="M183.57,49.396V43.99h-35.612l-0.046,5.486h15.31l-1.436,3.281h-13.02v27.129h30.929
		c3.233,0,2.946-3.266,2.946-3.266V52.758h-13.039l1.146-3.359h12.821V49.396z M176.654,74.094c0,0-0.375,0.901-0.905,0.901h-20.523
		v-6.328h21.431L176.654,74.094L176.654,74.094z M176.619,63.441h-21.396v-5.934h21.396V63.441L176.619,63.441z"/>
	<path id="path2235" fill="#E10601" d="M224.263,44.135H210.29v-2.737h-6.553V44h-16.028v35.831h5.767V48.622h30.787V44.135z
		 M220.494,51.551v-2.074h-5.633v2.074h-11.589v-2h-5.336v2h-3.605l0.071,4.059h3.534v7.623h19.492c2.705,0,3.063-2.854,3.063-2.854
		v-4.771h4.125v-4.06h-4.124L220.494,51.551L220.494,51.551z M214.861,58.381c0,0-0.503,0.924-1.146,0.924H203.21V55.53h11.648
		v2.853h0.003V58.381z M195.118,68.788l8.973,5.204c-0.711,0.781-3.775,1.773-3.775,1.773h-5.982v4h8.122
		c2.424-0.496,6.91-2.776,6.91-2.776c1.856,1.705,5.425,2.415,5.425,2.415h9.258v-3.99h-6.979c-1.881-0.281-3.57-1.354-3.57-1.354
		l10.551-6.058v-3.28h-28.93v4.064L195.118,68.788L195.118,68.788z M213.788,68.721l-5.132,2.707l-4.704-2.707H213.788z"/>
	<path id="path2237" fill="#E10601" d="M68.72,49.84h7.773v-6.848H68.72V49.84z M68.72,79.685h7.773V52.823H68.72V79.685z"/>
	<path id="path2239" fill="#E10601" d="M56.081,52.846l-16.584-0.043v5.647h14.542c0,0,3.461,0.854,3.461,3.05v1.989H44.341
		c0,0-5.175,0.478-6.837,6.659c-0.286,2.896,0.095,4.318,0.29,4.846c0.187,0.523,1.703,3.938,6.216,4.791h20.953V60.542
		C64.963,60.543,63.965,53.939,56.081,52.846 M57.5,74.469H46.91c-1.423-0.574-1.897-1.521-1.997-1.761
		c-0.098-0.233-0.428-1.084-0.044-1.944c0.857-1.658,2.277-2.041,2.277-2.041H57.5V74.469z"/>
	<path id="path2241" fill="#E10601" d="M35.795,70.264c0.229-6.541-5.639-8.803-5.639-8.803c4.967-2.598,4.336-9.146,4.336-9.146
		c-0.538-10.021-12.782-9.553-12.782-9.553H2.791v37.347h21.362C36.698,80.059,35.795,70.264,35.795,70.264 M23.724,73.167v0.017
		H10.927v-8.058h12.734l0.431,0.087c0,0,2.423,0.443,3.301,2.622c0,0,0.508,2.048-0.589,3.569
		C26.804,71.404,25.997,72.81,23.724,73.167 M26.437,55.851c0,0-0.86,1.58-3.142,1.922H10.927v-7.729h12.315
		c0,0,2.676-0.123,3.562,2.002C26.804,52.047,27.336,54.305,26.437,55.851"/>
</g>
</svg>
